;FLAVOR:Marlin
;TIME:1297
;Filament used: 0.385287m
;Layer height: 0.1
;MINX:91.064
;MINY:91.078
;MINZ:0.28
;MAXX:128.936
;MAXY:128.942
;MAXZ:2.98
;Generated with Cura_SteamEngine 4.8.0
M140 S60
M105
M190 S60
M104 S200
M105
M109 S200
M82 ;absolute extrusion mode
; Ender 3 Custom Start G-code
G92 E0 ; Reset Extruder
G28 ; Home all axes
G1 Z2.0 F3000 ; Move Z Axis up little to prevent scratching of Heat Bed
G1 X0.1 Y20 Z0.3 F5000.0 ; Move to start position
G1 X0.1 Y200.0 Z0.3 F1500.0 E15 ; Draw the first line
G1 X0.4 Y200.0 Z0.3 F5000.0 ; Move to side a little
G1 X0.4 Y20 Z0.3 F1500.0 E30 ; Draw the second line
G92 E0 ; Reset Extruder
G1 Z2.0 F3000 ; Move Z Axis up little to prevent scratching of Heat Bed
G1 X5 Y20 Z0.3 F5000.0 ; Move over to prevent blob squish
G92 E0
G92 E0
G1 F1500 E-6.5
;LAYER_COUNT:28
;LAYER:0
M107
G0 F6000 X96.619 Y96.604 Z0.28
;TYPE:SKIRT
G1 F1500 E0
G1 F1200 X97.755 Y95.559 E0.05391
G1 X98.368 Y95.049 E0.08175
G1 X98.833 Y94.736 E0.10133
G1 X98.859 Y94.712 E0.10256
G1 X99.497 Y94.234 E0.13041
G1 X100.046 Y93.894 E0.15296
G1 X101.387 Y93.139 E0.2067
G1 X102.41 Y92.656 E0.24621
G1 X103.894 Y92.08 E0.3018
G1 X105.005 Y91.74 E0.34238
G1 X106.594 Y91.378 E0.39929
G1 X107.765 Y91.201 E0.44065
G1 X109.405 Y91.078 E0.49809
G1 X110.595 Y91.078 E0.53965
G1 X112.235 Y91.201 E0.59708
G1 X113.406 Y91.378 E0.63844
G1 X114.995 Y91.74 E0.69536
G1 X116.106 Y92.08 E0.73593
G1 X117.59 Y92.656 E0.79152
G1 X118.613 Y93.139 E0.83103
G1 X119.954 Y93.894 E0.88478
G1 X120.628 Y94.32 E0.91262
G1 X121.079 Y94.672 E0.9326
G1 X121.102 Y94.685 E0.93352
G1 X121.754 Y95.143 E0.96135
G1 X122.245 Y95.559 E0.98382
G1 X123.379 Y96.602 E1.03763
G1 X124.156 Y97.426 E1.07718
G1 X125.164 Y98.661 E1.13286
G1 X125.833 Y99.616 E1.17358
G1 X126.665 Y101.011 E1.2303
G1 X127.191 Y102.064 E1.27141
G1 X127.817 Y103.589 E1.32898
G1 X128.187 Y104.725 E1.3707
G1 X128.576 Y106.321 E1.42807
G1 X128.769 Y107.486 E1.46931
G1 X128.916 Y109.106 E1.52612
G1 X128.936 Y110.274 E1.56692
G1 X128.846 Y111.863 E1.6225
G1 X128.702 Y112.984 E1.66197
G1 X128.397 Y114.497 E1.71587
G1 X128.201 Y115.27 E1.74372
G1 X128.01 Y115.793 E1.76316
G1 X128.003 Y115.83 E1.76448
G1 X127.769 Y116.592 E1.79232
G1 X127.523 Y117.191 E1.81493
G1 X126.881 Y118.591 E1.86872
G1 X126.338 Y119.583 E1.90821
G1 X125.474 Y120.924 E1.96393
G1 X124.775 Y121.852 E2.0045
G1 X123.706 Y123.074 E2.0612
G1 X122.863 Y123.904 E2.10251
G1 X121.608 Y124.968 E2.15998
G1 X120.646 Y125.667 E2.2015
G1 X119.243 Y126.534 E2.2591
G1 X118.19 Y127.08 E2.30052
G1 X116.696 Y127.719 E2.35727
G1 X115.6 Y128.096 E2.39775
G1 X114.063 Y128.502 E2.45327
G1 X112.945 Y128.714 E2.49301
G1 X111.412 Y128.891 E2.5469
G1 X110.616 Y128.942 E2.57476
G1 X110.056 Y128.922 E2.59432
G1 X110.024 Y128.926 E2.59545
G1 X109.227 Y128.938 E2.62329
G1 X108.588 Y128.891 E2.64566
G1 X107.055 Y128.714 E2.69956
G1 X105.937 Y128.502 E2.7393
G1 X104.4 Y128.096 E2.79481
G1 X103.304 Y127.719 E2.83529
G1 X101.81 Y127.08 E2.89204
G1 X100.757 Y126.534 E2.93346
G1 X99.354 Y125.667 E2.99106
G1 X98.392 Y124.968 E3.03259
G1 X97.137 Y123.904 E3.09005
G1 X96.294 Y123.074 E3.13136
G1 X95.225 Y121.852 E3.18806
G1 X94.526 Y120.924 E3.22864
G1 X93.662 Y119.583 E3.28435
G1 X93.119 Y118.591 E3.32384
G1 X92.477 Y117.191 E3.37763
G1 X92.181 Y116.45 E3.4055
G1 X92.021 Y115.894 E3.4257
G1 X92.013 Y115.876 E3.42639
G1 X91.755 Y115.121 E3.45425
G1 X91.603 Y114.497 E3.47668
G1 X91.298 Y112.984 E3.53059
G1 X91.154 Y111.863 E3.57006
G1 X91.064 Y110.277 E3.62553
G1 X91.083 Y109.11 E3.66629
G1 X91.23 Y107.487 E3.72321
G1 X91.425 Y106.317 E3.76463
G1 X91.815 Y104.721 E3.82201
G1 X92.18 Y103.597 E3.86328
G1 X92.804 Y102.072 E3.92082
G1 X93.338 Y101.004 E3.96252
G1 X94.172 Y99.609 E4.01928
G1 X94.834 Y98.665 E4.05955
G1 X95.839 Y97.432 E4.1151
G1 X96.619 Y96.604 E4.15483
G0 F6000 X96.822 Y96.825
G1 F1200 X97.958 Y95.78 E4.20873
G1 X98.56 Y95.28 E4.23606
G1 X99.064 Y94.942 E4.25726
G1 X99.225 Y94.802 E4.26471
G1 X100.193 Y94.156 E4.30535
G1 X101.534 Y93.401 E4.35909
G1 X102.519 Y92.935 E4.39715
G1 X104.003 Y92.359 E4.45274
G1 X105.072 Y92.032 E4.49178
G1 X106.661 Y91.67 E4.5487
G1 X107.788 Y91.5 E4.5885
G1 X109.428 Y91.377 E4.64593
G1 X110.572 Y91.377 E4.68589
G1 X112.212 Y91.5 E4.74332
G1 X113.339 Y91.67 E4.78312
G1 X114.928 Y92.032 E4.84004
G1 X115.997 Y92.359 E4.87908
G1 X117.481 Y92.935 E4.93467
G1 X118.466 Y93.401 E4.97273
G1 X119.807 Y94.156 E5.02647
G1 X120.468 Y94.574 E5.05378
G1 X120.948 Y94.951 E5.0751
G1 X121.13 Y95.06 E5.08251
G1 X122.042 Y95.779 E5.12307
G1 X123.176 Y96.822 E5.17687
G1 X123.924 Y97.616 E5.21497
G1 X124.932 Y98.851 E5.27064
G1 X125.575 Y99.769 E5.30978
G1 X126.407 Y101.164 E5.36651
G1 X126.914 Y102.178 E5.4061
G1 X127.54 Y103.703 E5.46367
G1 X127.895 Y104.796 E5.5038
G1 X128.284 Y106.392 E5.56117
G1 X128.471 Y107.513 E5.60086
G1 X128.618 Y109.133 E5.65767
G1 X128.637 Y110.257 E5.69693
G1 X128.547 Y111.846 E5.75251
G1 X128.408 Y112.925 E5.7905
G1 X128.103 Y114.438 E5.84441
G1 X127.91 Y115.195 E5.87169
G1 X127.706 Y115.749 E5.89231
G1 X127.655 Y115.972 E5.90029
G1 X127.251 Y117.066 E5.94102
G1 X126.609 Y118.466 E5.99481
G1 X126.086 Y119.42 E6.03281
G1 X125.222 Y120.761 E6.08852
G1 X124.549 Y121.655 E6.1276
G1 X123.48 Y122.877 E6.1843
G1 X122.669 Y123.675 E6.22403
G1 X121.414 Y124.739 E6.28149
G1 X120.489 Y125.412 E6.32144
G1 X119.086 Y126.279 E6.37904
G1 X118.072 Y126.805 E6.41893
G1 X116.578 Y127.444 E6.47568
G1 X115.524 Y127.806 E6.5146
G1 X113.987 Y128.212 E6.57012
G1 X112.91 Y128.416 E6.6084
G1 X111.377 Y128.593 E6.66229
G1 X110.597 Y128.642 E6.68958
G1 X109.996 Y128.619 E6.71059
G1 X109.781 Y128.638 E6.71812
G1 X108.623 Y128.593 E6.7586
G1 X107.09 Y128.416 E6.81249
G1 X106.013 Y128.212 E6.85077
G1 X104.476 Y127.806 E6.90629
G1 X103.422 Y127.444 E6.94521
G1 X101.928 Y126.805 E7.00196
G1 X100.914 Y126.279 E7.04185
G1 X99.511 Y125.412 E7.09945
G1 X98.586 Y124.739 E7.1394
G1 X97.331 Y123.675 E7.19686
G1 X96.52 Y122.877 E7.23659
G1 X95.451 Y121.655 E7.29329
G1 X94.778 Y120.761 E7.33237
G1 X93.914 Y119.42 E7.38808
G1 X93.391 Y118.466 E7.42608
G1 X92.749 Y117.066 E7.47986
G1 X92.46 Y116.339 E7.50718
G1 X92.29 Y115.738 E7.529
G1 X92.212 Y115.555 E7.53594
G1 X91.897 Y114.438 E7.57648
G1 X91.592 Y112.925 E7.63038
G1 X91.453 Y111.846 E7.66837
G1 X91.363 Y110.26 E7.72385
G1 X91.382 Y109.137 E7.76307
G1 X91.529 Y107.514 E7.81998
G1 X91.717 Y106.388 E7.85985
G1 X92.107 Y104.792 E7.91723
G1 X92.458 Y103.711 E7.95692
G1 X93.082 Y102.186 E8.01447
G1 X93.596 Y101.157 E8.05463
G1 X94.43 Y99.762 E8.1114
G1 X95.066 Y98.855 E8.15008
G1 X96.071 Y97.622 E8.20563
G1 X96.822 Y96.825 E8.24388
G0 F6000 X97.025 Y97.046
G1 F1200 X98.161 Y96.001 E8.29778
G1 X98.751 Y95.512 E8.32454
G1 X99.254 Y95.178 E8.34563
G1 X99.592 Y94.901 E8.36089
G1 X100.34 Y94.417 E8.39201
G1 X101.681 Y93.662 E8.44575
G1 X102.627 Y93.215 E8.48229
G1 X104.111 Y92.639 E8.53788
G1 X105.138 Y92.325 E8.57539
G1 X106.727 Y91.963 E8.6323
G1 X107.81 Y91.8 E8.67055
G1 X109.45 Y91.677 E8.72799
G1 X110.55 Y91.677 E8.7664
G1 X112.19 Y91.8 E8.82384
G1 X113.273 Y91.963 E8.86208
G1 X114.862 Y92.325 E8.919
G1 X115.889 Y92.639 E8.9565
G1 X117.373 Y93.215 E9.0121
G1 X118.319 Y93.662 E9.04864
G1 X119.66 Y94.417 E9.10238
G1 X120.307 Y94.828 E9.12915
G1 X120.786 Y95.206 E9.15046
G1 X121.149 Y95.439 E9.16552
G1 X121.839 Y96 E9.19658
G1 X122.973 Y97.043 E9.25039
G1 X123.691 Y97.805 E9.28695
G1 X124.699 Y99.04 E9.34262
G1 X125.318 Y99.923 E9.38028
G1 X126.15 Y101.318 E9.43701
G1 X126.636 Y102.292 E9.47502
G1 X127.262 Y103.817 E9.53259
G1 X127.604 Y104.868 E9.57119
G1 X127.993 Y106.464 E9.62856
G1 X128.172 Y107.54 E9.66665
G1 X128.319 Y109.16 E9.72346
G1 X128.337 Y110.24 E9.76118
G1 X128.247 Y111.829 E9.81676
G1 X128.114 Y112.865 E9.85324
G1 X127.809 Y114.378 E9.90714
G1 X127.619 Y115.121 E9.93393
G1 X127.413 Y115.676 E9.9546
G1 X127.3 Y116.108 E9.9702
G1 X126.978 Y116.941 E10.00138
G1 X126.336 Y118.341 E10.05517
G1 X125.834 Y119.258 E10.09168
G1 X124.97 Y120.599 E10.14739
G1 X124.323 Y121.457 E10.18492
G1 X123.254 Y122.679 E10.24162
G1 X122.475 Y123.446 E10.2798
G1 X121.22 Y124.51 E10.33726
G1 X120.331 Y125.156 E10.37564
G1 X118.928 Y126.023 E10.43324
G1 X117.954 Y126.529 E10.47157
G1 X116.46 Y127.168 E10.52831
G1 X115.447 Y127.516 E10.56572
G1 X113.91 Y127.922 E10.62124
G1 X112.876 Y128.117 E10.65799
G1 X111.343 Y128.294 E10.71188
G1 X110.578 Y128.343 E10.73865
G1 X109.978 Y128.318 E10.75962
G1 X109.542 Y128.343 E10.77487
G1 X108.657 Y128.294 E10.80583
G1 X107.124 Y128.117 E10.85972
G1 X106.09 Y127.922 E10.89647
G1 X104.553 Y127.516 E10.95199
G1 X103.54 Y127.168 E10.98939
G1 X102.046 Y126.529 E11.04614
G1 X101.072 Y126.023 E11.08447
G1 X99.669 Y125.156 E11.14207
G1 X98.78 Y124.51 E11.18045
G1 X97.525 Y123.446 E11.23791
G1 X96.746 Y122.679 E11.27609
G1 X95.677 Y121.457 E11.33279
G1 X95.03 Y120.599 E11.37031
G1 X94.166 Y119.258 E11.42603
G1 X93.664 Y118.341 E11.46253
G1 X93.022 Y116.941 E11.51632
G1 X92.739 Y116.228 E11.54311
G1 X92.569 Y115.623 E11.56506
G1 X92.419 Y115.237 E11.57952
G1 X92.191 Y114.378 E11.61056
G1 X91.886 Y112.865 E11.66446
G1 X91.753 Y111.829 E11.70094
G1 X91.663 Y110.243 E11.75642
G1 X91.681 Y109.164 E11.7941
G1 X91.828 Y107.541 E11.85101
G1 X92.008 Y106.459 E11.88932
G1 X92.398 Y104.863 E11.9467
G1 X92.735 Y103.825 E11.98481
G1 X93.359 Y102.3 E12.04235
G1 X93.853 Y101.311 E12.08096
G1 X94.687 Y99.916 E12.13772
G1 X95.299 Y99.044 E12.17493
G1 X96.304 Y97.811 E12.23048
G1 X97.025 Y97.046 E12.26719
G0 F6000 X97.228 Y97.266
G1 F1200 X98.364 Y96.221 E12.3211
G1 X98.943 Y95.743 E12.34732
G1 X99.363 Y95.465 E12.36491
G1 X99.959 Y95.008 E12.39114
G1 X100.487 Y94.679 E12.41286
G1 X101.828 Y93.924 E12.46661
G1 X102.736 Y93.495 E12.50168
G1 X104.22 Y92.919 E12.55727
G1 X105.205 Y92.617 E12.59325
G1 X106.794 Y92.255 E12.65017
G1 X107.833 Y92.099 E12.68686
G1 X109.473 Y91.976 E12.74429
G1 X110.527 Y91.976 E12.7811
G1 X112.167 Y92.099 E12.83854
G1 X113.206 Y92.255 E12.87523
G1 X114.795 Y92.617 E12.93214
G1 X115.78 Y92.919 E12.96812
G1 X117.264 Y93.495 E13.02372
G1 X118.172 Y93.924 E13.05879
G1 X119.513 Y94.679 E13.11253
G1 X120.146 Y95.081 E13.13872
G1 X120.542 Y95.396 E13.15639
G1 X121.161 Y95.822 E13.18263
G1 X121.636 Y96.221 E13.2043
G1 X122.77 Y97.264 E13.2581
G1 X123.459 Y97.995 E13.29318
G1 X124.467 Y99.23 E13.34886
G1 X125.06 Y100.077 E13.38497
G1 X125.892 Y101.472 E13.44169
G1 X126.359 Y102.406 E13.47816
G1 X126.985 Y103.931 E13.53573
G1 X127.312 Y104.939 E13.57274
G1 X127.701 Y106.535 E13.63011
G1 X127.873 Y107.567 E13.66664
G1 X128.02 Y109.187 E13.72345
G1 X128.038 Y110.223 E13.75964
G1 X127.948 Y111.812 E13.81522
G1 X127.82 Y112.806 E13.85022
G1 X127.515 Y114.319 E13.90412
G1 X127.328 Y115.046 E13.93034
G1 X127.157 Y115.502 E13.94735
G1 X126.94 Y116.237 E13.97411
G1 X126.705 Y116.816 E13.99593
G1 X126.063 Y118.216 E14.04972
G1 X125.581 Y119.095 E14.08473
G1 X124.717 Y120.436 E14.14044
G1 X124.097 Y121.26 E14.17645
G1 X123.028 Y122.482 E14.23315
G1 X122.281 Y123.217 E14.26975
G1 X121.026 Y124.281 E14.32721
G1 X120.173 Y124.901 E14.36404
G1 X118.77 Y125.768 E14.42164
G1 X117.836 Y126.253 E14.45839
G1 X116.342 Y126.892 E14.51514
G1 X115.371 Y127.226 E14.551
G1 X113.834 Y127.632 E14.60652
G1 X112.842 Y127.819 E14.64177
G1 X111.309 Y127.996 E14.69566
G1 X110.559 Y128.043 E14.72191
G1 X110.058 Y128.021 E14.73942
G1 X109.308 Y128.04 E14.76562
G1 X108.691 Y127.996 E14.78722
G1 X107.158 Y127.819 E14.84112
G1 X106.166 Y127.632 E14.87637
G1 X104.629 Y127.226 E14.93189
G1 X103.658 Y126.892 E14.96775
G1 X102.164 Y126.253 E15.0245
G1 X101.23 Y125.768 E15.06125
G1 X99.827 Y124.901 E15.11885
G1 X98.974 Y124.281 E15.15567
G1 X97.719 Y123.217 E15.21313
G1 X96.972 Y122.482 E15.24973
G1 X95.903 Y121.26 E15.30643
G1 X95.283 Y120.436 E15.34245
G1 X94.419 Y119.095 E15.39816
G1 X93.937 Y118.216 E15.43317
G1 X93.295 Y116.816 E15.48695
G1 X93.019 Y116.118 E15.51317
G1 X92.877 Y115.606 E15.53172
G1 X92.634 Y114.921 E15.55711
G1 X92.485 Y114.319 E15.57876
G1 X92.18 Y112.806 E15.63267
G1 X92.052 Y111.812 E15.66767
G1 X91.962 Y110.226 E15.72314
G1 X91.98 Y109.191 E15.75929
G1 X92.127 Y107.568 E15.81621
G1 X92.3 Y106.53 E15.85296
G1 X92.69 Y104.934 E15.91033
G1 X93.013 Y103.938 E15.9469
G1 X93.637 Y102.413 E16.00444
G1 X94.111 Y101.465 E16.04146
G1 X94.945 Y100.07 E16.09822
G1 X95.531 Y99.234 E16.13387
G1 X96.536 Y98.001 E16.18943
G1 X97.228 Y97.266 E16.22468
G0 F6000 X97.431 Y97.487
G1 F1200 X98.567 Y96.442 E16.27859
G1 X99.134 Y95.975 E16.30424
G1 X99.588 Y95.677 E16.3232
G1 X99.729 Y95.551 E16.32981
G1 X100.634 Y94.94 E16.36794
G1 X101.975 Y94.185 E16.42169
G1 X102.845 Y93.774 E16.45529
G1 X104.329 Y93.198 E16.51088
G1 X105.272 Y92.91 E16.54532
G1 X106.861 Y92.548 E16.60223
G1 X107.855 Y92.398 E16.63734
G1 X109.495 Y92.275 E16.69477
G1 X110.505 Y92.275 E16.73005
G1 X112.145 Y92.398 E16.78748
G1 X113.139 Y92.548 E16.82259
G1 X114.728 Y92.91 E16.8795
G1 X115.671 Y93.198 E16.91394
G1 X117.155 Y93.774 E16.96953
G1 X118.025 Y94.185 E17.00313
G1 X119.366 Y94.94 E17.05688
G1 X119.985 Y95.335 E17.08252
G1 X120.413 Y95.678 E17.10167
G1 X120.573 Y95.771 E17.10814
G1 X121.432 Y96.442 E17.1462
G1 X122.566 Y97.485 E17.20001
G1 X123.226 Y98.185 E17.23361
G1 X124.234 Y99.42 E17.28928
G1 X124.802 Y100.23 E17.32383
G1 X125.634 Y101.625 E17.38056
G1 X126.081 Y102.52 E17.41549
G1 X126.707 Y104.045 E17.47306
G1 X127.021 Y105.01 E17.5085
G1 X127.41 Y106.606 E17.56587
G1 X127.574 Y107.594 E17.60085
G1 X127.721 Y109.214 E17.65766
G1 X127.738 Y110.206 E17.69231
G1 X127.648 Y111.795 E17.74789
G1 X127.526 Y112.747 E17.78141
G1 X127.221 Y114.26 E17.83531
G1 X127.037 Y114.971 E17.86096
G1 X126.85 Y115.464 E17.87937
G1 X126.807 Y115.662 E17.88645
G1 X126.433 Y116.691 E17.92468
G1 X125.791 Y118.091 E17.97847
G1 X125.329 Y118.933 E18.01201
G1 X124.465 Y120.274 E18.06772
G1 X123.871 Y121.062 E18.10218
G1 X122.802 Y122.284 E18.15889
G1 X122.087 Y122.989 E18.19395
G1 X120.832 Y124.053 E18.25141
G1 X120.015 Y124.646 E18.28667
G1 X118.612 Y125.513 E18.34427
G1 X117.718 Y125.977 E18.37944
G1 X116.224 Y126.616 E18.43619
G1 X115.294 Y126.936 E18.47054
G1 X113.757 Y127.342 E18.52605
G1 X112.807 Y127.521 E18.55982
G1 X111.274 Y127.698 E18.61371
G1 X110.541 Y127.743 E18.63936
G1 X110.005 Y127.717 E18.6581
G1 X109.814 Y127.736 E18.6648
G1 X108.726 Y127.698 E18.70282
G1 X107.193 Y127.521 E18.75671
G1 X106.243 Y127.342 E18.79047
G1 X104.706 Y126.936 E18.84599
G1 X103.776 Y126.616 E18.88034
G1 X102.282 Y125.977 E18.93708
G1 X101.388 Y125.513 E18.97226
G1 X99.985 Y124.646 E19.02986
G1 X99.168 Y124.053 E19.06511
G1 X97.913 Y122.989 E19.12257
G1 X97.198 Y122.284 E19.15764
G1 X96.129 Y121.062 E19.21434
G1 X95.535 Y120.274 E19.2488
G1 X94.671 Y118.933 E19.30452
G1 X94.209 Y118.091 E19.33806
G1 X93.567 Y116.691 E19.39184
G1 X93.298 Y116.007 E19.41751
G1 X93.15 Y115.467 E19.43707
G1 X93.08 Y115.308 E19.44313
G1 X92.779 Y114.26 E19.48121
G1 X92.474 Y112.747 E19.53511
G1 X92.352 Y111.795 E19.56863
G1 X92.262 Y110.209 E19.62411
G1 X92.279 Y109.218 E19.65872
G1 X92.426 Y107.595 E19.71564
G1 X92.591 Y106.602 E19.75079
G1 X92.981 Y105.006 E19.80817
G1 X93.291 Y104.052 E19.8432
G1 X93.915 Y102.527 E19.90074
G1 X94.368 Y101.619 E19.93618
G1 X95.202 Y100.224 E19.99294
G1 X95.764 Y99.423 E20.02711
G1 X96.769 Y98.19 E20.08267
G1 X97.431 Y97.487 E20.11639
G0 F6000 X97.634 Y97.708
G1 F1200 X98.77 Y96.663 E20.17029
G1 X99.325 Y96.207 E20.19538
G1 X99.777 Y95.913 E20.21421
G1 X100.095 Y95.648 E20.22867
G1 X100.782 Y95.202 E20.25727
G1 X102.123 Y94.447 E20.31101
G1 X102.953 Y94.054 E20.34309
G1 X104.437 Y93.478 E20.39868
