;FLAVOR:Marlin
;TIME:2278
;Filament used: 0.517203m
;Layer height: 0.1
;MINX:91.059
;MINY:91.092
;MINZ:0.28
;MAXX:128.941
;MAXY:128.925
;MAXZ:5.98
;Generated with Cura_SteamEngine 4.8.0
M140 S60
M105
M190 S60
M104 S200
M105
M109 S200
M82 ;absolute extrusion mode
; Ender 3 Custom Start G-code
G92 E0 ; Reset Extruder
G28 ; Home all axes
G1 Z2.0 F3000 ; Move Z Axis up little to prevent scratching of Heat Bed
G1 X0.1 Y20 Z0.3 F5000.0 ; Move to start position
G1 X0.1 Y200.0 Z0.3 F1500.0 E15 ; Draw the first line
G1 X0.4 Y200.0 Z0.3 F5000.0 ; Move to side a little
G1 X0.4 Y20 Z0.3 F1500.0 E30 ; Draw the second line
G92 E0 ; Reset Extruder
G1 Z2.0 F3000 ; Move Z Axis up little to prevent scratching of Heat Bed
G1 X5 Y20 Z0.3 F5000.0 ; Move over to prevent blob squish
G92 E0
G92 E0
G1 F1500 E-6.5
;LAYER_COUNT:58
;LAYER:0
M107
G0 F6000 X97.324 Y95.938 Z0.28
;TYPE:SKIRT
G1 F1500 E0
G1 F1200 X97.933 Y95.424 E0.02783
G1 X98.591 Y94.973 E0.05569
G1 X98.931 Y94.787 E0.06922
G1 X99.284 Y94.462 E0.08598
G1 X99.922 Y93.983 E0.11384
G1 X100.604 Y93.571 E0.14167
G1 X101.237 Y93.266 E0.16621
G1 X103.893 Y92.127 E0.26713
G1 X104.64 Y91.849 E0.29497
G1 X105.399 Y91.651 E0.32236
G1 X106.867 Y91.344 E0.37474
G1 X107.952 Y91.195 E0.41299
G1 X109.458 Y91.092 E0.4657
G1 X110.542 Y91.092 E0.50356
G1 X112.048 Y91.195 E0.55628
G1 X113.133 Y91.344 E0.59452
G1 X114.601 Y91.651 E0.6469
G1 X115.373 Y91.853 E0.67477
G1 X116.107 Y92.127 E0.70213
G1 X118.763 Y93.266 E0.80306
G1 X119.479 Y93.616 E0.83089
G1 X120.157 Y94.037 E0.85876
G1 X120.788 Y94.523 E0.88657
G1 X121.067 Y94.786 E0.89996
G1 X121.488 Y95.023 E0.91684
G1 X122.14 Y95.481 E0.94466
G1 X122.744 Y96.002 E0.97252
G1 X123.23 Y96.511 E0.9971
G1 X125.136 Y98.688 E1.09815
G1 X125.631 Y99.314 E1.12602
G1 X126.055 Y99.977 E1.1535
G1 X126.796 Y101.272 E1.20561
G1 X127.27 Y102.249 E1.24353
G1 X127.836 Y103.654 E1.29643
G1 X128.173 Y104.689 E1.33444
G1 X128.54 Y106.151 E1.38708
G1 X128.732 Y107.226 E1.42522
G1 X128.894 Y108.713 E1.47746
G1 X128.941 Y109.509 E1.50531
G1 X128.908 Y110.299 E1.53292
G1 X128.644 Y113.182 E1.63402
G1 X128.531 Y113.971 E1.66186
G1 X128.341 Y114.745 E1.68969
G1 X128.073 Y115.496 E1.71754
G1 X127.91 Y115.842 E1.7309
G1 X127.815 Y116.312 E1.74764
G1 X127.581 Y117.074 E1.77548
G1 X127.271 Y117.809 E1.80334
G1 X126.941 Y118.424 E1.82771
G1 X125.463 Y120.908 E1.92866
G1 X125.022 Y121.572 E1.95649
G1 X124.517 Y122.187 E1.98429
G1 X123.511 Y123.295 E2.03655
G1 X122.73 Y124.045 E2.07436
G1 X121.572 Y125.015 E2.12712
G1 X120.686 Y125.659 E2.16537
G1 X119.402 Y126.463 E2.21828
G1 X118.445 Y126.975 E2.25618
G1 X117.085 Y127.587 E2.30826
G1 X116.343 Y127.877 E2.33609
G1 X115.581 Y128.09 E2.36372
G1 X112.758 Y128.73 E2.46481
G1 X111.972 Y128.867 E2.49267
G1 X111.177 Y128.925 E2.52051
G1 X110.38 Y128.903 E2.54835
G1 X110.001 Y128.854 E2.5617
G1 X109.524 Y128.91 E2.57847
G1 X108.727 Y128.922 E2.60631
G1 X107.932 Y128.855 E2.63417
G1 X107.242 Y128.73 E2.65866
G1 X104.419 Y128.09 E2.75975
G1 X103.652 Y127.875 E2.78757
G1 X102.915 Y127.587 E2.8152
G1 X101.555 Y126.975 E2.86729
G1 X100.598 Y126.463 E2.90519
G1 X99.314 Y125.659 E2.9581
G1 X98.428 Y125.015 E2.99635
G1 X97.27 Y124.045 E3.0491
G1 X96.489 Y123.295 E3.08692
G1 X95.483 Y122.187 E3.13918
G1 X94.977 Y121.571 E3.16702
G1 X94.537 Y120.908 E3.19481
G1 X93.059 Y118.424 E3.29576
G1 X92.686 Y117.719 E3.32361
G1 X92.386 Y116.981 E3.35143
G1 X92.161 Y116.216 E3.37928
G1 X92.091 Y115.844 E3.3925
G1 X91.89 Y115.406 E3.40933
G1 X91.632 Y114.652 E3.43716
G1 X91.451 Y113.876 E3.46499
G1 X91.356 Y113.183 E3.48941
G1 X91.092 Y110.304 E3.59038
G1 X91.059 Y109.507 E3.61824
G1 X91.106 Y108.719 E3.64581
G1 X91.268 Y107.228 E3.69818
G1 X91.46 Y106.151 E3.73639
G1 X91.827 Y104.689 E3.78903
G1 X92.164 Y103.654 E3.82704
G1 X92.73 Y102.249 E3.87994
G1 X93.204 Y101.272 E3.91787
G1 X93.945 Y99.977 E3.96997
G1 X94.375 Y99.305 E3.99783
G1 X94.864 Y98.688 E4.02533
G1 X96.77 Y96.511 E4.12638
G1 X97.324 Y95.938 E4.15421
G0 F6000 X97.54 Y96.147
G1 F1200 X98.139 Y95.645 E4.1815
G1 X98.786 Y95.206 E4.20881
G1 X99.08 Y95.048 E4.22047
G1 X99.65 Y94.552 E4.24685
G1 X100.289 Y94.101 E4.27417
G1 X100.971 Y93.719 E4.30147
G1 X101.355 Y93.541 E4.31625
G1 X104.011 Y92.402 E4.41717
G1 X104.744 Y92.131 E4.44447
G1 X105.46 Y91.945 E4.4703
G1 X106.928 Y91.638 E4.52268
G1 X107.972 Y91.494 E4.55948
G1 X109.478 Y91.391 E4.6122
G1 X110.522 Y91.391 E4.64866
G1 X112.028 Y91.494 E4.70138
G1 X113.072 Y91.638 E4.73818
G1 X114.54 Y91.945 E4.79056
G1 X115.296 Y92.144 E4.81786
G1 X115.989 Y92.402 E4.84368
G1 X118.645 Y93.541 E4.94461
G1 X119.347 Y93.886 E4.97193
G1 X120.01 Y94.3 E4.99922
G1 X120.628 Y94.78 E5.02655
G1 X120.868 Y95.01 E5.03816
G1 X121.516 Y95.398 E5.06454
G1 X122.142 Y95.867 E5.09185
G1 X122.716 Y96.397 E5.11914
G1 X123.005 Y96.709 E5.13399
G1 X124.911 Y98.886 E5.23504
G1 X125.395 Y99.5 E5.26234
G1 X125.795 Y100.126 E5.28829
G1 X126.536 Y101.421 E5.34039
G1 X126.992 Y102.361 E5.37688
G1 X127.558 Y103.766 E5.42978
G1 X127.882 Y104.762 E5.46636
G1 X128.249 Y106.224 E5.519
G1 X128.434 Y107.258 E5.55568
G1 X128.596 Y108.745 E5.60792
G1 X128.641 Y109.526 E5.63524
G1 X128.609 Y110.272 E5.66132
G1 X128.345 Y113.155 E5.76242
G1 X128.234 Y113.929 E5.78973
G1 X128.045 Y114.687 E5.81701
G1 X127.779 Y115.423 E5.84434
G1 X127.636 Y115.72 E5.85585
G1 X127.466 Y116.454 E5.88216
G1 X127.214 Y117.195 E5.9095
G1 X126.887 Y117.905 E5.9368
G1 X126.683 Y118.271 E5.95143
G1 X125.205 Y120.755 E6.05237
G1 X124.772 Y121.405 E6.07965
G1 X124.295 Y121.985 E6.10587
G1 X123.289 Y123.093 E6.15814
G1 X122.537 Y123.815 E6.19455
G1 X121.379 Y124.785 E6.2473
G1 X120.527 Y125.405 E6.2841
G1 X119.243 Y126.209 E6.33701
G1 X118.322 Y126.701 E6.37347
G1 X116.962 Y127.313 E6.42556
G1 X116.234 Y127.597 E6.45285
G1 X115.514 Y127.798 E6.47895
G1 X112.691 Y128.438 E6.58004
G1 X111.921 Y128.571 E6.60733
G1 X111.141 Y128.626 E6.63464
G1 X110.359 Y128.6 E6.66196
G1 X110.031 Y128.556 E6.67352
G1 X109.281 Y128.622 E6.69981
G1 X108.499 Y128.611 E6.72713
G1 X107.722 Y128.519 E6.75445
G1 X107.309 Y128.438 E6.76915
G1 X104.486 Y127.798 E6.87024
G1 X103.733 Y127.586 E6.89756
G1 X103.038 Y127.313 E6.92364
G1 X101.678 Y126.701 E6.97572
G1 X100.757 Y126.209 E7.01218
G1 X99.473 Y125.405 E7.06509
G1 X98.621 Y124.785 E7.10189
G1 X97.463 Y123.815 E7.15464
G1 X96.711 Y123.093 E7.19105
G1 X95.705 Y121.985 E7.24332
G1 X95.21 Y121.38 E7.27062
G1 X94.795 Y120.755 E7.29682
G1 X93.317 Y118.271 E7.39776
G1 X92.952 Y117.579 E7.42508
G1 X92.659 Y116.854 E7.45239
G1 X92.442 Y116.102 E7.47973
G1 X92.384 Y115.779 E7.49119
G1 X92.089 Y115.086 E7.51749
G1 X91.858 Y114.339 E7.5448
G1 X91.705 Y113.572 E7.57211
G1 X91.655 Y113.156 E7.58674
G1 X91.391 Y110.277 E7.68771
G1 X91.359 Y109.495 E7.71504
G1 X91.404 Y108.752 E7.74104
G1 X91.566 Y107.261 E7.79341
G1 X91.751 Y106.224 E7.8302
G1 X92.118 Y104.762 E7.88284
G1 X92.442 Y103.766 E7.91942
G1 X93.008 Y102.361 E7.97232
G1 X93.464 Y101.421 E8.0088
G1 X94.205 Y100.126 E8.06091
G1 X94.628 Y99.468 E8.08823
G1 X95.089 Y98.886 E8.11416
G1 X96.995 Y96.709 E8.21521
G1 X97.54 Y96.147 E8.24255
G0 F6000 X97.755 Y96.357
G1 F1200 X98.344 Y95.866 E8.26933
G1 X98.981 Y95.439 E8.29611
G1 X99.28 Y95.28 E8.30793
G1 X99.423 Y95.136 E8.31502
G1 X100.016 Y94.65 E8.3418
G1 X100.657 Y94.229 E8.36858
G1 X101.473 Y93.817 E8.4005
G1 X104.129 Y92.678 E8.50143
G1 X104.848 Y92.413 E8.52819
G1 X105.521 Y92.239 E8.55247
G1 X106.989 Y91.932 E8.60484
G1 X107.992 Y91.793 E8.6402
G1 X109.498 Y91.69 E8.69292
G1 X110.502 Y91.69 E8.72798
G1 X112.008 Y91.793 E8.7807
G1 X113.011 Y91.932 E8.81606
G1 X114.479 Y92.239 E8.86844
G1 X115.22 Y92.434 E8.8952
G1 X115.871 Y92.678 E8.91948
G1 X118.527 Y93.817 E9.0204
G1 X119.215 Y94.155 E9.04717
G1 X119.863 Y94.564 E9.07393
G1 X120.466 Y95.037 E9.1007
G1 X120.707 Y95.271 E9.11243
G1 X120.89 Y95.363 E9.11958
G1 X121.535 Y95.777 E9.14635
G1 X122.134 Y96.256 E9.17313
G1 X122.779 Y96.906 E9.20511
G1 X124.685 Y99.083 E9.30616
G1 X125.159 Y99.686 E9.33295
G1 X125.534 Y100.275 E9.35733
G1 X126.275 Y101.57 E9.40944
G1 X126.714 Y102.474 E9.44454
G1 X127.28 Y103.879 E9.49743
G1 X127.591 Y104.835 E9.53254
G1 X127.958 Y106.297 E9.58519
G1 X128.136 Y107.291 E9.62045
G1 X128.298 Y108.778 E9.67269
G1 X128.341 Y109.543 E9.69945
G1 X128.31 Y110.244 E9.72395
G1 X128.046 Y113.127 E9.82506
G1 X127.937 Y113.886 E9.85184
G1 X127.749 Y114.629 E9.8786
G1 X127.484 Y115.349 E9.9054
G1 X127.337 Y115.649 E9.91706
G1 X127.306 Y115.849 E9.92413
G1 X127.112 Y116.59 E9.95088
G1 X126.842 Y117.308 E9.97767
G1 X126.425 Y118.117 E10.00946
G1 X124.947 Y120.601 E10.1104
G1 X124.522 Y121.239 E10.13717
G1 X124.073 Y121.784 E10.16183
G1 X123.067 Y122.892 E10.2141
G1 X122.345 Y123.585 E10.24905
G1 X121.187 Y124.555 E10.3018
G1 X120.368 Y125.151 E10.33717
G1 X119.084 Y125.955 E10.39008
G1 X118.199 Y126.428 E10.42513
G1 X116.839 Y127.04 E10.47721
G1 X116.125 Y127.317 E10.50395
G1 X115.448 Y127.505 E10.52849
G1 X112.625 Y128.145 E10.62958
G1 X111.87 Y128.275 E10.65634
G1 X111.105 Y128.326 E10.68311
G1 X110.339 Y128.297 E10.70988
G1 X110.009 Y128.25 E10.72152
G1 X109.807 Y128.283 E10.72867
G1 X109.042 Y128.327 E10.75543
G1 X108.276 Y128.291 E10.78221
G1 X107.375 Y128.145 E10.81409
G1 X104.552 Y127.505 E10.91518
G1 X103.814 Y127.297 E10.94196
G1 X103.161 Y127.04 E10.96646
G1 X101.801 Y126.428 E11.01855
G1 X100.916 Y125.955 E11.05359
G1 X99.632 Y125.151 E11.1065
G1 X98.813 Y124.555 E11.14187
G1 X97.655 Y123.585 E11.19463
G1 X96.933 Y122.892 E11.22957
G1 X95.927 Y121.784 E11.28184
G1 X95.442 Y121.19 E11.30862
G1 X95.053 Y120.601 E11.33327
G1 X93.575 Y118.117 E11.43422
G1 X93.217 Y117.439 E11.46099
G1 X92.933 Y116.727 E11.48776
G1 X92.724 Y115.99 E11.51451
G1 X92.667 Y115.662 E11.52614
G1 X92.574 Y115.482 E11.53322
G1 X92.296 Y114.768 E11.55998
G1 X92.093 Y114.029 E11.58674
G1 X91.954 Y113.128 E11.61858
G1 X91.69 Y110.249 E11.71954
G1 X91.66 Y109.483 E11.74631
G1 X91.702 Y108.784 E11.77077
G1 X91.864 Y107.293 E11.82315
G1 X92.042 Y106.297 E11.85848
G1 X92.409 Y104.835 E11.91112
G1 X92.72 Y103.879 E11.94623
G1 X93.286 Y102.474 E11.99913
G1 X93.725 Y101.57 E12.03423
G1 X94.466 Y100.275 E12.08633
G1 X94.88 Y99.63 E12.1131
G1 X95.315 Y99.083 E12.13751
G1 X97.221 Y96.906 E12.23856
G1 X97.755 Y96.357 E12.2653
G0 F6000 X97.971 Y96.566
G1 F1200 X98.549 Y96.087 E12.29152
G1 X99.174 Y95.673 E12.3177
G1 X99.464 Y95.523 E12.3291
G1 X99.788 Y95.214 E12.34474
G1 X100.384 Y94.757 E12.37097
G1 X101.024 Y94.366 E12.39716
G1 X101.591 Y94.093 E12.41914
G1 X104.247 Y92.954 E12.52006
G1 X104.952 Y92.695 E12.54629
G1 X105.583 Y92.532 E12.56905
G1 X107.051 Y92.225 E12.62143
G1 X108.013 Y92.092 E12.65534
G1 X109.519 Y91.989 E12.70806
G1 X110.481 Y91.989 E12.74166
G1 X111.987 Y92.092 E12.79437
G1 X112.949 Y92.225 E12.82829
G1 X114.417 Y92.532 E12.88066
G1 X115.143 Y92.725 E12.9069
G1 X115.753 Y92.954 E12.92965
G1 X118.409 Y94.093 E13.03058
G1 X119.082 Y94.425 E13.05679
G1 X119.716 Y94.827 E13.083
G1 X120.304 Y95.294 E13.10923
G1 X120.534 Y95.521 E13.12051
G1 X120.928 Y95.734 E13.13615
G1 X121.547 Y96.16 E13.1624
G1 X122.117 Y96.648 E13.1886
G1 X122.553 Y97.104 E13.21063
G1 X124.459 Y99.281 E13.31168
G1 X124.923 Y99.871 E13.3379
G1 X125.274 Y100.424 E13.36077
G1 X126.015 Y101.719 E13.41288
G1 X126.435 Y102.586 E13.44652
G1 X127.001 Y103.991 E13.49942
G1 X127.3 Y104.909 E13.53314
G1 X127.667 Y106.371 E13.58578
G1 X127.838 Y107.323 E13.61956
G1 X128 Y108.81 E13.6718
G1 X128.041 Y109.56 E13.69803
G1 X128.012 Y110.217 E13.72099
G1 X127.748 Y113.1 E13.8221
G1 X127.639 Y113.843 E13.84832
G1 X127.453 Y114.57 E13.87453
G1 X127.19 Y115.273 E13.90074
G1 X127.046 Y115.561 E13.91199
G1 X126.965 Y116 E13.92758
G1 X126.752 Y116.72 E13.9538
G1 X126.463 Y117.413 E13.98002
G1 X126.168 Y117.964 E14.00185
G1 X124.69 Y120.448 E14.10279
G1 X124.272 Y121.072 E14.12902
G1 X123.851 Y121.582 E14.15212
G1 X122.845 Y122.69 E14.20438
G1 X122.152 Y123.355 E14.23792
G1 X120.994 Y124.325 E14.29068
G1 X120.209 Y124.896 E14.32458
G1 X118.925 Y125.7 E14.37749
G1 X118.076 Y126.154 E14.41111
G1 X116.716 Y126.766 E14.46319
G1 X116.016 Y127.037 E14.48941
G1 X115.382 Y127.213 E14.51238
G1 X112.559 Y127.853 E14.61347
G1 X111.819 Y127.979 E14.63969
G1 X111.07 Y128.027 E14.6659
G1 X110.32 Y127.994 E14.69212
G1 X110.001 Y127.946 E14.70338
G1 X109.558 Y128.005 E14.71899
G1 X108.808 Y128.024 E14.74519
G1 X108.06 Y127.964 E14.7714
G1 X107.441 Y127.853 E14.79336
G1 X104.618 Y127.213 E14.89445
G1 X103.896 Y127.008 E14.92066
G1 X103.284 Y126.766 E14.94365
G1 X101.924 Y126.154 E14.99573
G1 X101.075 Y125.7 E15.02935
G1 X99.791 Y124.896 E15.08226
G1 X99.006 Y124.325 E15.11616
G1 X97.848 Y123.355 E15.16891
G1 X97.155 Y122.69 E15.20245
G1 X96.149 Y121.582 E15.25472
G1 X95.675 Y121 E15.28093
G1 X95.31 Y120.448 E15.30404
G1 X93.832 Y117.964 E15.40499
G1 X93.483 Y117.299 E15.43121
G1 X93.207 Y116.601 E15.45743
G1 X93.007 Y115.878 E15.48363
G1 X92.955 Y115.563 E15.49478
G1 X92.762 Y115.16 E15.51038
G1 X92.511 Y114.452 E15.53661
G1 X92.337 Y113.722 E15.56282
G1 X92.252 Y113.101 E15.58471
G1 X91.988 Y110.222 E15.68568
G1 X91.96 Y109.472 E15.71189
G1 X92 Y108.816 E15.73484
G1 X92.162 Y107.325 E15.78722
G1 X92.333 Y106.371 E15.82106
G1 X92.7 Y104.909 E15.87371
G1 X92.999 Y103.991 E15.90742
G1 X93.565 Y102.586 E15.96032
G1 X93.985 Y101.719 E15.99397
G1 X94.726 Y100.424 E16.04607
G1 X95.133 Y99.793 E16.07229
G1 X95.541 Y99.281 E16.09516
G1 X97.447 Y97.104 E16.19621
G1 X97.971 Y96.566 E16.22243
G0 F6000 X98.186 Y96.776
G1 F1200 X98.753 Y96.309 E16.24809
G1 X99.368 Y95.907 E16.27375
G1 X99.617 Y95.78 E16.28351
G1 X100.153 Y95.301 E16.30861
G1 X100.751 Y94.874 E16.33427
G1 X101.71 Y94.368 E16.37214
G1 X104.366 Y93.229 E16.47307
G1 X105.056 Y92.977 E16.49872
G1 X105.644 Y92.826 E16.51992
G1 X107.112 Y92.519 E16.5723
G1 X108.033 Y92.392 E16.60477
G1 X109.539 Y92.289 E16.65748
G1 X110.461 Y92.289 E16.68968
G1 X111.967 Y92.392 E16.7424
G1 X112.888 Y92.519 E16.77487
G1 X114.356 Y92.826 E16.82724
G1 X115.065 Y93.015 E16.85287
G1 X115.634 Y93.229 E16.8741
G1 X118.29 Y94.368 E16.97502
G1 X118.949 Y94.694 E17.0007
G1 X119.568 Y95.09 E17.02636
G1 X120.14 Y95.55 E17.052
G1 X120.335 Y95.745 E17.06163
G1 X120.959 Y96.109 E17.08686
G1 X121.549 Y96.545 E17.11248
G1 X122.328 Y97.302 E17.15041
G1 X124.234 Y99.479 E17.25146
G1 X124.687 Y100.057 E17.27711
G1 X125.014 Y100.573 E17.29844
G1 X125.755 Y101.868 E17.35055
G1 X126.157 Y102.698 E17.38275
G1 X126.723 Y104.103 E17.43565
G1 X127.009 Y104.982 E17.46794
G1 X127.376 Y106.444 E17.52058
G1 X127.539 Y107.356 E17.55293
G1 X127.701 Y108.843 E17.60517
G1 X127.741 Y109.576 E17.63081
G1 X127.713 Y110.19 E17.65227
G1 X127.449 Y113.073 E17.75338
G1 X127.342 Y113.799 E17.779
G1 X127.157 Y114.51 E17.80466
G1 X126.896 Y115.197 E17.83033
G1 X126.77 Y115.443 E17.83998
G1 X126.619 Y116.144 E17.86502
G1 X126.386 Y116.841 E17.89069
G1 X125.91 Y117.811 E17.92842
G1 X124.432 Y120.295 E18.02937
G1 X124.022 Y120.904 E18.055
G1 X123.628 Y121.38 E18.07658
G1 X122.622 Y122.488 E18.12885
G1 X121.959 Y123.125 E18.16096
G1 X120.801 Y124.095 E18.21371
G1 X120.049 Y124.642 E18.24619
G1 X118.765 Y125.446 E18.29909
G1 X117.953 Y125.88 E18.33125
G1 X116.593 Y126.492 E18.38333
G1 X115.908 Y126.757 E18.40898
G1 X115.315 Y126.92 E18.43046
G1 X112.492 Y127.56 E18.53155
G1 X111.768 Y127.683 E18.55719
G1 X111.035 Y127.727 E18.58284
G1 X110.301 Y127.691 E18.6085
G1 X110.029 Y127.648 E18.61812
G1 X109.314 Y127.72 E18.64322
G1 X108.579 Y127.714 E18.66889
G1 X107.508 Y127.56 E18.70667
G1 X104.685 Y126.92 E18.80776
G1 X103.978 Y126.719 E18.83343
G1 X103.407 Y126.492 E18.85489
G1 X102.047 Y125.88 E18.90697
