;FLAVOR:Marlin
;TIME:1771
;Filament used: 0.518561m
;Layer height: 0.1
;MINX:91.077
;MINY:91.072
;MINZ:0.28
;MAXX:128.938
;MAXY:128.929
;MAXZ:5.98
;Generated with Cura_SteamEngine 4.8.0
M140 S60
M105
M190 S60
M104 S200
M105
M109 S200
M82 ;absolute extrusion mode
; Ender 3 Custom Start G-code
G92 E0 ; Reset Extruder
G28 ; Home all axes
G1 Z2.0 F3000 ; Move Z Axis up little to prevent scratching of Heat Bed
G1 X0.1 Y20 Z0.3 F5000.0 ; Move to start position
G1 X0.1 Y200.0 Z0.3 F1500.0 E15 ; Draw the first line
G1 X0.4 Y200.0 Z0.3 F5000.0 ; Move to side a little
G1 X0.4 Y20 Z0.3 F1500.0 E30 ; Draw the second line
G92 E0 ; Reset Extruder
G1 Z2.0 F3000 ; Move Z Axis up little to prevent scratching of Heat Bed
G1 X5 Y20 Z0.3 F5000.0 ; Move over to prevent blob squish
G92 E0
G92 E0
G1 F1500 E-6.5
;LAYER_COUNT:58
;LAYER:0
M107
G0 F6000 X97.343 Y95.918 Z0.28
;TYPE:SKIRT
G1 F1500 E0
G1 F1200 X98.212 Y95.226 E0.03879
G1 X100.412 Y93.714 E0.13202
G1 X101.091 Y93.296 E0.15987
G1 X102.126 Y92.821 E0.19964
G1 X104.632 Y91.882 E0.2931
G1 X105.391 Y91.641 E0.32091
G1 X106.484 Y91.432 E0.35977
G1 X109.063 Y91.126 E0.45047
G1 X109.859 Y91.072 E0.47833
G1 X110.937 Y91.126 E0.51603
G1 X113.516 Y91.432 E0.60672
G1 X114.302 Y91.566 E0.63457
G1 X115.368 Y91.882 E0.6734
G1 X117.874 Y92.821 E0.76686
G1 X118.606 Y93.138 E0.79472
G1 X119.588 Y93.714 E0.83448
G1 X121.788 Y95.226 E0.9277
G1 X122.421 Y95.71 E0.95553
G1 X123.217 Y96.485 E0.99433
G1 X124.948 Y98.425 E1.08513
G1 X125.448 Y99.046 E1.11297
G1 X125.884 Y99.714 E1.14083
G1 X126.25 Y100.422 E1.16866
G1 X126.323 Y100.605 E1.17554
G1 X126.574 Y100.943 E1.19025
G1 X126.983 Y101.627 E1.21808
G1 X127.322 Y102.349 E1.24594
G1 X127.515 Y102.87 E1.26534
G1 X128.329 Y105.335 E1.356
G1 X128.541 Y106.104 E1.38385
G1 X128.705 Y107.204 E1.42269
G1 X128.915 Y109.87 E1.51609
G1 X128.938 Y110.667 E1.54393
G1 X128.832 Y111.803 E1.58378
G1 X128.391 Y114.445 E1.67732
G1 X128.22 Y115.224 E1.70517
G1 X127.855 Y116.27 E1.74386
G1 X126.833 Y118.653 E1.83442
G1 X126.483 Y119.369 E1.86225
G1 X125.896 Y120.277 E1.90001
G1 X124.34 Y122.36 E1.99081
G1 X123.832 Y122.974 E2.01864
G1 X123.023 Y123.74 E2.05755
G1 X120.961 Y125.437 E2.15081
G1 X120.321 Y125.913 E2.17867
G1 X119.329 Y126.476 E2.2185
G1 X116.914 Y127.627 E2.31193
G1 X116.178 Y127.933 E2.33976
G1 X115.113 Y128.234 E2.37841
G1 X112.569 Y128.763 E2.46916
G1 X111.781 Y128.885 E2.49701
G1 X110.985 Y128.929 E2.52485
G1 X110.188 Y128.892 E2.55271
G1 X109.991 Y128.863 E2.55967
G1 X109.574 Y128.912 E2.57433
G1 X108.777 Y128.924 E2.60217
G1 X107.982 Y128.857 E2.63003
G1 X107.431 Y128.763 E2.64955
G1 X104.887 Y128.234 E2.74029
G1 X104.116 Y128.032 E2.76813
G1 X103.086 Y127.627 E2.80678
G1 X100.671 Y126.476 E2.90021
G1 X99.969 Y126.097 E2.92807
G1 X99.039 Y125.437 E2.9679
G1 X96.977 Y123.74 E3.06116
G1 X96.388 Y123.204 E3.08897
G1 X95.66 Y122.36 E3.1279
G1 X94.104 Y120.277 E3.2187
G1 X93.659 Y119.615 E3.24655
G1 X93.167 Y118.653 E3.28429
G1 X92.145 Y116.27 E3.37484
G1 X91.867 Y115.522 E3.40271
G1 X91.609 Y114.445 E3.44139
G1 X91.168 Y111.803 E3.53493
G1 X91.077 Y111.011 E3.56277
G1 X91.085 Y109.87 E3.60262
G1 X91.295 Y107.204 E3.69601
G1 X91.397 Y106.413 E3.72386
G1 X91.671 Y105.335 E3.76271
G1 X92.485 Y102.87 E3.85337
G1 X92.773 Y102.127 E3.8812
G1 X93.133 Y101.416 E3.90903
G1 X93.563 Y100.744 E3.93689
G1 X93.687 Y100.588 E3.94385
G1 X93.852 Y100.205 E3.95841
G1 X94.24 Y99.508 E3.98627
G1 X94.696 Y98.854 E4.01411
G1 X95.052 Y98.425 E4.03358
G1 X96.783 Y96.485 E4.12438
G1 X97.343 Y95.918 E4.15221
G0 F6000 X97.557 Y96.129
G1 F1200 X98.382 Y95.473 E4.18902
G1 X100.582 Y93.961 E4.28225
G1 X101.248 Y93.552 E4.30955
G1 X102.231 Y93.102 E4.3473
G1 X104.737 Y92.163 E4.44076
G1 X105.482 Y91.927 E4.46805
G1 X106.52 Y91.73 E4.50495
G1 X109.099 Y91.424 E4.59565
G1 X109.879 Y91.372 E4.62295
G1 X110.901 Y91.424 E4.65869
G1 X113.48 Y91.73 E4.74938
G1 X114.251 Y91.862 E4.7767
G1 X115.263 Y92.163 E4.81357
G1 X117.769 Y93.102 E4.90703
G1 X118.487 Y93.414 E4.93437
G1 X119.418 Y93.961 E4.97208
G1 X121.618 Y95.473 E5.06531
G1 X122.239 Y95.949 E5.09264
G1 X122.993 Y96.685 E5.12943
G1 X124.724 Y98.625 E5.22023
G1 X125.214 Y99.234 E5.24753
G1 X125.64 Y99.89 E5.27485
G1 X125.996 Y100.587 E5.30218
G1 X126.056 Y100.741 E5.30795
G1 X126.446 Y101.297 E5.33167
G1 X126.827 Y101.98 E5.35898
G1 X127.23 Y102.964 E5.39612
G1 X128.044 Y105.429 E5.48678
G1 X128.251 Y106.183 E5.51408
G1 X128.406 Y107.227 E5.55094
G1 X128.616 Y109.893 E5.64433
G1 X128.638 Y110.675 E5.67166
G1 X128.536 Y111.754 E5.70951
G1 X128.095 Y114.396 E5.80305
G1 X127.927 Y115.159 E5.83033
G1 X127.58 Y116.151 E5.86704
G1 X126.558 Y118.534 E5.95759
G1 X126.213 Y119.236 E5.9849
G1 X125.656 Y120.097 E6.02072
G1 X124.1 Y122.18 E6.11152
G1 X123.6 Y122.782 E6.13885
G1 X122.832 Y123.509 E6.17578
G1 X120.77 Y125.206 E6.26904
G1 X120.142 Y125.671 E6.29633
G1 X119.2 Y126.205 E6.33415
G1 X116.785 Y127.356 E6.42758
G1 X116.063 Y127.656 E6.45488
G1 X115.051 Y127.94 E6.49159
G1 X112.507 Y128.469 E6.58233
G1 X111.735 Y128.589 E6.60962
G1 X110.954 Y128.629 E6.63693
G1 X110.173 Y128.589 E6.66424
G1 X110.01 Y128.564 E6.67
G1 X109.331 Y128.624 E6.6938
G1 X108.549 Y128.613 E6.72112
G1 X107.493 Y128.469 E6.75834
G1 X104.949 Y127.94 E6.84908
G1 X104.192 Y127.742 E6.87641
G1 X103.215 Y127.356 E6.91309
G1 X100.8 Y126.205 E7.00652
G1 X100.112 Y125.833 E7.03384
G1 X99.23 Y125.206 E7.07163
G1 X97.168 Y123.509 E7.16489
G1 X96.59 Y122.982 E7.19221
G1 X95.9 Y122.18 E7.22915
G1 X94.344 Y120.097 E7.31996
G1 X93.909 Y119.448 E7.34724
G1 X93.442 Y118.534 E7.38309
G1 X92.42 Y116.151 E7.47364
G1 X92.149 Y115.418 E7.50093
G1 X91.905 Y114.396 E7.53762
G1 X91.464 Y111.754 E7.63117
G1 X91.375 Y110.977 E7.65848
G1 X91.384 Y109.893 E7.69634
G1 X91.594 Y107.227 E7.78973
G1 X91.695 Y106.452 E7.81703
G1 X91.956 Y105.429 E7.8539
G1 X92.77 Y102.964 E7.94456
G1 X93.053 Y102.235 E7.97187
G1 X93.409 Y101.539 E7.99917
G1 X93.834 Y100.882 E8.02649
G1 X93.936 Y100.755 E8.03218
G1 X94.223 Y100.138 E8.05595
G1 X94.624 Y99.467 E8.08325
G1 X95.276 Y98.625 E8.12044
G1 X97.007 Y96.685 E8.21124
G1 X97.557 Y96.129 E8.23855
G0 F6000 X97.77 Y96.34
G1 F1200 X98.552 Y95.721 E8.27338
G1 X100.752 Y94.209 E8.36661
G1 X101.405 Y93.808 E8.39337
G1 X102.336 Y93.383 E8.42911
G1 X104.842 Y92.444 E8.52257
G1 X105.573 Y92.213 E8.54934
G1 X106.555 Y92.028 E8.58424
G1 X109.134 Y91.722 E8.67494
G1 X109.899 Y91.672 E8.70171
G1 X110.866 Y91.722 E8.73553
G1 X113.445 Y92.028 E8.82622
G1 X114.2 Y92.158 E8.85298
G1 X115.158 Y92.444 E8.8879
G1 X117.664 Y93.383 E8.98135
G1 X118.367 Y93.689 E9.00813
G1 X119.248 Y94.209 E9.04386
G1 X121.448 Y95.721 E9.13708
G1 X122.056 Y96.187 E9.16384
G1 X122.769 Y96.885 E9.19868
G1 X124.5 Y98.825 E9.28948
G1 X124.98 Y99.422 E9.31623
G1 X125.395 Y100.067 E9.34302
G1 X125.741 Y100.751 E9.36979
G1 X125.889 Y101.011 E9.38024
G1 X126.31 Y101.652 E9.40702
G1 X126.662 Y102.333 E9.43379
G1 X126.945 Y103.058 E9.46097
G1 X127.759 Y105.523 E9.55163
G1 X127.961 Y106.263 E9.57842
G1 X128.107 Y107.251 E9.6133
G1 X128.317 Y109.917 E9.70669
G1 X128.338 Y110.683 E9.73345
G1 X128.24 Y111.704 E9.76927
G1 X127.799 Y114.346 E9.86282
G1 X127.633 Y115.095 E9.88961
G1 X127.304 Y116.033 E9.92432
G1 X126.282 Y118.416 E10.01487
G1 X125.944 Y119.104 E10.04164
G1 X125.415 Y119.918 E10.07555
G1 X123.859 Y122.001 E10.16635
G1 X123.369 Y122.59 E10.19311
G1 X122.642 Y123.277 E10.22804
G1 X120.58 Y124.974 E10.3213
G1 X119.963 Y125.43 E10.34809
G1 X119.071 Y125.934 E10.38387
G1 X116.656 Y127.085 E10.4773
G1 X115.948 Y127.378 E10.50406
G1 X114.99 Y127.646 E10.5388
G1 X112.446 Y128.175 E10.62955
G1 X111.689 Y128.292 E10.6563
G1 X110.923 Y128.329 E10.68308
G1 X110.158 Y128.286 E10.70984
G1 X109.857 Y128.285 E10.72035
G1 X109.092 Y128.329 E10.74711
G1 X108.326 Y128.293 E10.77389
G1 X107.554 Y128.175 E10.80117
G1 X105.01 Y127.646 E10.89191
G1 X104.268 Y127.451 E10.9187
G1 X103.344 Y127.085 E10.95341
G1 X100.929 Y125.934 E11.04684
G1 X100.255 Y125.569 E11.07361
G1 X99.42 Y124.974 E11.10941
G1 X97.358 Y123.277 E11.20268
G1 X96.793 Y122.76 E11.22942
G1 X96.141 Y122.001 E11.26437
G1 X94.585 Y119.918 E11.35517
G1 X94.158 Y119.28 E11.38198
G1 X93.718 Y118.416 E11.41584
G1 X92.696 Y116.033 E11.50639
G1 X92.431 Y115.314 E11.53315
G1 X92.201 Y114.346 E11.5679
G1 X91.76 Y111.704 E11.66144
G1 X91.674 Y110.942 E11.68822
G1 X91.683 Y109.917 E11.72402
G1 X91.893 Y107.251 E11.81741
G1 X91.993 Y106.491 E11.84418
G1 X92.241 Y105.523 E11.87908
G1 X93.055 Y103.058 E11.96974
G1 X93.333 Y102.344 E11.9965
G1 X93.684 Y101.662 E12.02329
G1 X94.104 Y101.021 E12.05005
G1 X94.254 Y100.764 E12.06044
G1 X94.598 Y100.079 E12.08721
G1 X95.012 Y99.434 E12.11398
G1 X95.5 Y98.825 E12.14123
G1 X97.231 Y96.885 E12.23203
G1 X97.77 Y96.34 E12.2588
G0 F6000 X97.984 Y96.552
G1 F1200 X98.722 Y95.968 E12.29167
G1 X100.922 Y94.456 E12.38489
G1 X101.562 Y94.064 E12.4111
G1 X102.441 Y93.664 E12.44483
G1 X104.947 Y92.725 E12.53829
G1 X105.663 Y92.5 E12.5645
G1 X106.59 Y92.326 E12.59744
G1 X109.169 Y92.02 E12.68814
G1 X109.918 Y91.971 E12.71435
G1 X110.831 Y92.02 E12.74628
G1 X113.41 Y92.326 E12.83698
G1 X114.149 Y92.454 E12.86317
G1 X115.053 Y92.725 E12.89613
G1 X117.559 Y93.664 E12.98959
G1 X118.247 Y93.965 E13.01582
G1 X119.078 Y94.456 E13.04952
G1 X121.278 Y95.968 E13.14275
G1 X121.873 Y96.425 E13.16895
G1 X122.545 Y97.084 E13.20182
G1 X124.276 Y99.024 E13.29262
G1 X124.746 Y99.61 E13.31886
G1 X125.15 Y100.243 E13.34508
G1 X125.485 Y100.915 E13.3713
G1 X125.54 Y101.062 E13.37679
G1 X125.773 Y101.365 E13.39013
G1 X126.165 Y102.006 E13.41637
G1 X126.487 Y102.684 E13.44259
G1 X126.66 Y103.152 E13.46001
G1 X127.474 Y105.617 E13.55067
G1 X127.672 Y106.342 E13.57692
G1 X127.808 Y107.274 E13.60981
G1 X128.018 Y109.94 E13.7032
G1 X128.037 Y110.691 E13.72944
G1 X127.944 Y111.655 E13.76326
G1 X127.503 Y114.297 E13.8568
G1 X127.34 Y115.03 E13.88303
G1 X127.028 Y115.915 E13.9158
G1 X126.006 Y118.298 E14.00635
G1 X125.674 Y118.971 E14.03256
G1 X125.175 Y119.738 E14.06451
G1 X123.619 Y121.821 E14.15532
G1 X123.138 Y122.398 E14.18155
G1 X122.451 Y123.046 E14.21453
G1 X120.389 Y124.743 E14.30779
G1 X119.785 Y125.188 E14.33399
G1 X118.942 Y125.663 E14.36779
G1 X116.527 Y126.814 E14.46121
G1 X115.833 Y127.101 E14.48744
G1 X114.929 Y127.352 E14.52021
G1 X112.385 Y127.881 E14.61095
G1 X111.643 Y127.995 E14.63717
G1 X110.893 Y128.029 E14.66339
G1 X110.144 Y127.983 E14.68959
G1 X109.988 Y127.956 E14.69512
G1 X109.608 Y128.007 E14.70851
G1 X108.858 Y128.026 E14.73471
G1 X108.11 Y127.966 E14.76092
G1 X107.615 Y127.881 E14.77846
G1 X105.071 Y127.352 E14.86921
G1 X104.345 Y127.161 E14.89542
G1 X103.473 Y126.814 E14.9282
G1 X101.058 Y125.663 E15.02163
G1 X100.398 Y125.305 E15.04785
G1 X99.611 Y124.743 E15.08162
G1 X97.549 Y123.046 E15.17488
G1 X96.996 Y122.538 E15.20111
G1 X96.381 Y121.821 E15.2341
G1 X94.825 Y119.738 E15.3249
G1 X94.408 Y119.114 E15.35111
G1 X93.994 Y118.298 E15.38306
G1 X92.972 Y115.915 E15.47362
G1 X92.713 Y115.21 E15.49985
G1 X92.497 Y114.297 E15.53261
G1 X92.056 Y111.655 E15.62615
G1 X91.972 Y110.909 E15.65237
G1 X91.982 Y109.94 E15.68621
G1 X92.192 Y107.274 E15.77961
G1 X92.29 Y106.53 E15.80581
G1 X92.526 Y105.617 E15.83875
G1 X93.34 Y103.152 E15.9294
G1 X93.613 Y102.453 E15.95561
G1 X93.958 Y101.787 E15.98181
G1 X94.373 Y101.161 E16.00804
G1 X94.473 Y101.041 E16.01349
G1 X94.619 Y100.687 E16.02686
G1 X94.977 Y100.028 E16.05305
G1 X95.403 Y99.41 E16.07927
G1 X95.724 Y99.024 E16.0968
G1 X97.455 Y97.084 E16.1876
G1 X97.984 Y96.552 E16.2138
G0 F6000 X98.197 Y96.763
G1 F1200 X98.892 Y96.215 E16.24471
G1 X101.092 Y94.703 E16.33794
G1 X101.719 Y94.321 E16.36358
G1 X102.547 Y93.945 E16.39534
G1 X105.053 Y93.006 E16.4888
G1 X105.753 Y92.786 E16.51442
G1 X106.626 Y92.624 E16.54543
G1 X109.205 Y92.318 E16.63613
G1 X109.938 Y92.271 E16.66178
G1 X110.795 Y92.318 E16.69175
G1 X113.374 Y92.624 E16.78245
G1 X114.098 Y92.75 E16.80812
G1 X114.947 Y93.006 E16.83908
G1 X117.453 Y93.945 E16.93254
G1 X118.126 Y94.24 E16.95821
G1 X118.908 Y94.703 E16.98994
G1 X121.108 Y96.215 E17.08317
G1 X121.69 Y96.664 E17.10884
G1 X122.322 Y97.284 E17.13976
G1 X124.053 Y99.224 E17.23056
G1 X124.511 Y99.798 E17.2562
G1 X124.904 Y100.418 E17.28184
G1 X125.228 Y101.078 E17.30752
G1 X125.271 Y101.196 E17.3119
G1 X125.648 Y101.72 E17.33445
G1 X126.011 Y102.359 E17.36011
G1 X126.376 Y103.246 E17.39361
G1 X127.19 Y105.711 E17.48427
G1 X127.382 Y106.42 E17.50992
G1 X127.509 Y107.298 E17.5409
G1 X127.719 Y109.964 E17.63429
G1 X127.737 Y110.698 E17.65994
G1 X127.648 Y111.605 E17.69176
G1 X127.207 Y114.247 E17.78531
G1 X127.047 Y114.964 E17.81096
G1 X126.753 Y115.797 E17.84181
G1 X125.731 Y118.18 E17.93236
G1 X125.405 Y118.838 E17.95801
G1 X124.935 Y119.559 E17.98807
G1 X123.379 Y121.642 E18.07887
G1 X122.908 Y122.205 E18.1045
G1 X122.26 Y122.814 E18.13556
G1 X120.198 Y124.511 E18.22882
G1 X119.607 Y124.946 E18.25445
G1 X118.813 Y125.392 E18.28625
G1 X116.398 Y126.543 E18.37968
G1 X115.719 Y126.823 E18.40533
G1 X114.868 Y127.059 E18.43617
G1 X112.324 Y127.588 E18.52692
G1 X111.598 Y127.698 E18.55256
G1 X110.864 Y127.728 E18.57822
G1 X110.131 Y127.679 E18.60387
G1 X110.007 Y127.657 E18.60827
G1 X109.364 Y127.722 E18.63084
G1 X108.629 Y127.716 E18.65651
G1 X107.676 Y127.588 E18.69009
G1 X105.132 Y127.059 E18.78083
G1 X104.422 Y126.87 E18.80649
G1 X103.602 Y126.543 E18.83732
G1 X101.187 Y125.392 E18.93075
G1 X100.542 Y125.041 E18.9564
G1 X99.802 Y124.511 E18.98818
G1 X97.74 Y122.814 E19.08145
G1 X97.199 Y122.317 E19.1071
G1 X96.621 Y121.642 E19.13814
G1 X95.065 Y119.559 E19.22894
G1 X94.658 Y118.947 E19.25461
G1 X94.269 Y118.18 E19.28464
G1 X93.247 Y115.797 E19.37519
G1 X92.995 Y115.107 E19.40085
G1 X92.793 Y114.247 E19.4317
G1 X92.352 Y111.605 E19.52524
G1 X92.271 Y110.875 E19.55089
G1 X92.281 Y109.964 E19.58271
G1 X92.491 Y107.298 E19.6761
G1 X92.588 Y106.57 E19.70175
G1 X92.81 Y105.711 E19.73273
G1 X93.624 Y103.246 E19.82339
G1 X93.892 Y102.562 E19.84905
G1 X94.233 Y101.912 E19.87468
G1 X94.642 Y101.302 E19.90033
G1 X94.725 Y101.204 E19.90482
G1 X94.988 Y100.618 E19.92725
G1 X95.36 Y99.985 E19.95289
G1 X95.947 Y99.224 E19.98645
G1 X97.678 Y97.284 E20.07725
G1 X98.197 Y96.763 E20.10293
G0 F6000 X98.409 Y96.975
G1 F1200 X99.062 Y96.462 E20.13194
G1 X101.262 Y94.95 E20.22516
G1 X101.875 Y94.577 E20.25022
G1 X102.652 Y94.226 E20.28
G1 X105.158 Y93.287 E20.37346
G1 X105.843 Y93.073 E20.39852
G1 X106.661 Y92.922 E20.42757
G1 X109.24 Y92.616 E20.51827
G1 X109.957 Y92.571 E20.54336
G1 X110.76 Y92.616 E20.57144
G1 X113.339 Y92.922 E20.66214
G1 X114.046 Y93.046 E20.68721
G1 X114.842 Y93.287 E20.71626
G1 X117.348 Y94.226 E20.80971
G1 X118.005 Y94.515 E20.83478
G1 X118.738 Y94.95 E20.86455
G1 X120.938 Y96.462 E20.95777
G1 X121.507 Y96.901 E20.98287
G1 X122.098 Y97.484 E21.01186
G1 X123.829 Y99.424 E21.10266
G1 X124.276 Y99.985 E21.12772
G1 X124.659 Y100.593 E21.15281
G1 X124.971 Y101.24 E21.1779
G1 X125.115 Y101.478 E21.18761
G1 X125.515 Y102.074 E21.21268
G1 X125.846 Y102.711 E21.23775
G1 X126.091 Y103.34 E21.26132
G1 X126.905 Y105.805 E21.35198
G1 X127.092 Y106.499 E21.37708
G1 X127.21 Y107.322 E21.40612
G1 X127.42 Y109.988 E21.49951
G1 X127.437 Y110.705 E21.52456
G1 X127.352 Y111.556 E21.55442
G1 X126.911 Y114.198 E21.64797
G1 X126.754 Y114.899 E21.67306
G1 X126.477 Y115.678 E21.70193
G1 X125.455 Y118.061 E21.79248
G1 X125.136 Y118.704 E21.81755
G1 X124.694 Y119.379 E21.84573
G1 X123.138 Y121.462 E21.93653
G1 X122.677 Y122.013 E21.96162
G1 X122.07 Y122.582 E21.99067
G1 X120.008 Y124.279 E22.08393
G1 X119.429 Y124.704 E22.10902
G1 X118.684 Y125.122 E22.13885
