;FLAVOR:Marlin
;TIME:4525
;Filament used: 1.2609m
;Layer height: 0.1
;MINX:91.092
;MINY:91.092
;MINZ:0.28
;MAXX:128.908
;MAXY:128.908
;MAXZ:19.98
;Generated with Cura_SteamEngine 4.8.0
M140 S60
M105
M190 S60
M104 S200
M105
M109 S200
M82 ;absolute extrusion mode
; Ender 3 Custom Start G-code
G92 E0 ; Reset Extruder
G28 ; Home all axes
G1 Z2.0 F3000 ; Move Z Axis up little to prevent scratching of Heat Bed
G1 X0.1 Y20 Z0.3 F5000.0 ; Move to start position
G1 X0.1 Y200.0 Z0.3 F1500.0 E15 ; Draw the first line
G1 X0.4 Y200.0 Z0.3 F5000.0 ; Move to side a little
G1 X0.4 Y20 Z0.3 F1500.0 E30 ; Draw the second line
G92 E0 ; Reset Extruder
G1 Z2.0 F3000 ; Move Z Axis up little to prevent scratching of Heat Bed
G1 X5 Y20 Z0.3 F5000.0 ; Move over to prevent blob squish
G92 E0
G92 E0
G1 F1500 E-6.5
;LAYER_COUNT:198
;LAYER:0
M107
G0 F6000 X96.651 Y96.55 Z0.28
;TYPE:SKIRT
G1 F1500 E0
G1 F1200 X97.134 Y96.113 E0.02275
G1 X98.681 Y94.825 E0.09305
G1 X99.319 Y94.347 E0.12089
G1 X99.874 Y94.004 E0.14367
G1 X101.595 Y93.037 E0.21261
G1 X102.308 Y92.682 E0.24043
G1 X102.874 Y92.46 E0.26166
G1 X104.683 Y91.83 E0.32856
G1 X105.448 Y91.606 E0.3564
G1 X105.988 Y91.497 E0.37564
G1 X107.79 Y91.196 E0.43944
G1 X108.582 Y91.104 E0.46729
G1 X109.379 Y91.092 E0.49512
G1 X110.015 Y91.146 E0.51741
G1 X110.376 Y91.104 E0.53011
G1 X111.173 Y91.092 E0.55794
G1 X112.21 Y91.196 E0.59434
G1 X114.012 Y91.497 E0.65814
G1 X114.791 Y91.667 E0.68599
G1 X115.317 Y91.83 E0.70522
G1 X117.126 Y92.46 E0.77212
G1 X117.864 Y92.76 E0.79994
G1 X118.405 Y93.037 E0.82116
G1 X120.126 Y94.004 E0.8901
G1 X120.801 Y94.429 E0.91796
G1 X121.318 Y94.825 E0.9407
G1 X122.863 Y96.111 E1.01091
G1 X123.449 Y96.651 E1.03874
G1 X123.885 Y97.133 E1.06143
G1 X125.172 Y98.678 E1.13166
G1 X125.651 Y99.315 E1.15949
G1 X125.995 Y99.872 E1.18235
G1 X126.963 Y101.595 E1.25137
G1 X127.318 Y102.309 E1.27922
G1 X127.539 Y102.872 E1.30034
G1 X128.169 Y104.679 E1.36717
G1 X128.393 Y105.444 E1.39501
G1 X128.504 Y105.988 E1.4144
G1 X128.805 Y107.792 E1.47827
G1 X128.896 Y108.584 E1.50611
G1 X128.908 Y109.381 E1.53395
G1 X128.854 Y110.015 E1.55617
G1 X128.896 Y110.376 E1.56886
G1 X128.908 Y111.173 E1.5967
G1 X128.805 Y112.207 E1.63299
G1 X128.505 Y114.007 E1.69672
G1 X128.334 Y114.786 E1.72457
G1 X128.17 Y115.316 E1.74395
G1 X127.539 Y117.127 E1.81092
G1 X127.24 Y117.866 E1.83876
G1 X126.964 Y118.404 E1.85988
G1 X125.998 Y120.124 E1.92877
G1 X125.573 Y120.799 E1.95663
G1 X125.176 Y121.317 E1.97942
G1 X123.889 Y122.863 E2.04967
G1 X123.349 Y123.45 E2.07753
G1 X122.866 Y123.887 E2.10027
G1 X121.319 Y125.175 E2.17057
G1 X120.681 Y125.653 E2.19842
G1 X120.126 Y125.996 E2.2212
G1 X118.405 Y126.963 E2.29014
G1 X117.692 Y127.318 E2.31796
G1 X117.126 Y127.54 E2.33919
G1 X115.317 Y128.17 E2.40609
G1 X114.552 Y128.394 E2.43393
G1 X114.012 Y128.503 E2.45316
G1 X112.21 Y128.804 E2.51697
G1 X111.418 Y128.896 E2.54481
G1 X110.621 Y128.908 E2.57265
G1 X109.985 Y128.854 E2.59494
G1 X109.624 Y128.896 E2.60763
G1 X108.827 Y128.908 E2.63547
G1 X107.79 Y128.804 E2.67187
G1 X105.988 Y128.503 E2.73567
G1 X105.209 Y128.333 E2.76352
G1 X104.683 Y128.17 E2.78275
G1 X102.874 Y127.54 E2.84964
G1 X102.136 Y127.24 E2.87747
G1 X101.595 Y126.963 E2.89869
G1 X99.874 Y125.996 E2.96763
G1 X99.199 Y125.571 E2.99549
G1 X98.681 Y125.175 E3.01826
G1 X97.134 Y123.887 E3.08856
G1 X96.548 Y123.346 E3.11641
G1 X96.111 Y122.863 E3.13916
G1 X94.824 Y121.317 E3.20941
G1 X94.345 Y120.68 E3.23724
G1 X94.002 Y120.124 E3.26006
G1 X93.036 Y118.404 E3.32895
G1 X92.681 Y117.69 E3.3568
G1 X92.461 Y117.127 E3.37791
G1 X91.83 Y115.316 E3.44488
G1 X91.605 Y114.551 E3.47273
G1 X91.495 Y114.007 E3.49211
G1 X91.195 Y112.207 E3.55584
G1 X91.104 Y111.415 E3.58368
G1 X91.092 Y110.618 E3.61152
G1 X91.146 Y109.984 E3.63374
G1 X91.104 Y109.624 E3.6464
G1 X91.092 Y108.827 E3.67424
G1 X91.195 Y107.793 E3.71053
G1 X91.495 Y105.993 E3.77425
G1 X91.666 Y105.214 E3.80211
G1 X91.83 Y104.684 E3.82148
G1 X92.461 Y102.873 E3.88846
G1 X92.76 Y102.134 E3.9163
G1 X93.036 Y101.596 E3.93742
G1 X94.002 Y99.876 E4.00631
G1 X94.427 Y99.201 E4.03416
G1 X94.824 Y98.683 E4.05696
G1 X96.111 Y97.137 E4.12721
G1 X96.651 Y96.55 E4.15506
G0 F6000 X96.872 Y96.754
G1 F1200 X97.326 Y96.344 E4.17643
G1 X98.873 Y95.056 E4.24673
G1 X99.499 Y94.587 E4.27404
G1 X100.021 Y94.266 E4.29544
G1 X101.742 Y93.299 E4.36438
G1 X102.442 Y92.951 E4.39169
G1 X102.973 Y92.744 E4.41159
G1 X104.782 Y92.114 E4.47849
G1 X105.533 Y91.894 E4.50582
G1 X106.038 Y91.793 E4.5238
G1 X107.84 Y91.492 E4.5876
G1 X108.617 Y91.402 E4.61492
G1 X109.399 Y91.393 E4.64223
G1 X109.999 Y91.447 E4.66327
G1 X110.619 Y91.392 E4.68501
G1 X111.401 Y91.403 E4.71232
G1 X112.16 Y91.492 E4.73901
G1 X113.962 Y91.793 E4.80281
G1 X114.726 Y91.961 E4.83013
G1 X115.218 Y92.114 E4.84813
G1 X117.027 Y92.744 E4.91502
G1 X117.751 Y93.038 E4.94231
G1 X118.258 Y93.299 E4.96223
G1 X119.979 Y94.266 E5.03117
G1 X120.641 Y94.683 E5.05849
G1 X121.126 Y95.055 E5.07984
G1 X122.671 Y96.341 E5.15004
G1 X123.246 Y96.872 E5.17737
G1 X123.655 Y97.325 E5.19869
G1 X124.942 Y98.87 E5.26891
G1 X125.411 Y99.495 E5.2962
G1 X125.734 Y100.019 E5.3177
G1 X126.702 Y101.742 E5.38672
G1 X127.049 Y102.442 E5.414
G1 X127.256 Y102.971 E5.43384
G1 X127.886 Y104.778 E5.50067
G1 X128.105 Y105.528 E5.52796
G1 X128.208 Y106.037 E5.54609
G1 X128.509 Y107.841 E5.60997
G1 X128.598 Y108.618 E5.63728
G1 X128.607 Y109.4 E5.66459
G1 X128.553 Y110 E5.68563
G1 X128.608 Y110.619 E5.70733
G1 X128.597 Y111.401 E5.73464
G1 X128.509 Y112.158 E5.76126
G1 X128.209 Y113.958 E5.82499
G1 X128.041 Y114.721 E5.85227
G1 X127.887 Y115.217 E5.87041
G1 X127.256 Y117.028 E5.93738
G1 X126.961 Y117.752 E5.96469
G1 X126.702 Y118.257 E5.98451
G1 X125.736 Y119.977 E6.0534
G1 X125.319 Y120.638 E6.08069
G1 X124.945 Y121.125 E6.10214
G1 X123.658 Y122.671 E6.17239
G1 X123.128 Y123.246 E6.1997
G1 X122.674 Y123.656 E6.22106
G1 X121.127 Y124.944 E6.29136
G1 X120.501 Y125.413 E6.31868
G1 X119.979 Y125.734 E6.34008
G1 X118.258 Y126.701 E6.40902
G1 X117.558 Y127.049 E6.43632
G1 X117.027 Y127.256 E6.45623
G1 X115.218 Y127.886 E6.52312
G1 X114.467 Y128.106 E6.55045
G1 X113.962 Y128.207 E6.56844
G1 X112.16 Y128.508 E6.63224
G1 X111.383 Y128.598 E6.65956
G1 X110.601 Y128.607 E6.68687
G1 X110.001 Y128.553 E6.70791
G1 X109.381 Y128.608 E6.72965
G1 X108.599 Y128.597 E6.75696
G1 X107.84 Y128.508 E6.78365
G1 X106.038 Y128.207 E6.84745
G1 X105.274 Y128.039 E6.87477
G1 X104.782 Y127.886 E6.89276
G1 X102.973 Y127.256 E6.95966
G1 X102.249 Y126.962 E6.98695
G1 X101.742 Y126.701 E7.00686
G1 X100.021 Y125.734 E7.0758
G1 X99.359 Y125.317 E7.10313
G1 X98.873 Y124.944 E7.12452
G1 X97.326 Y123.656 E7.19482
G1 X96.752 Y123.126 E7.22211
G1 X96.342 Y122.671 E7.2435
G1 X95.055 Y121.125 E7.31375
G1 X94.586 Y120.5 E7.34104
G1 X94.264 Y119.977 E7.36249
G1 X93.298 Y118.257 E7.43138
G1 X92.95 Y117.557 E7.45868
G1 X92.744 Y117.028 E7.4785
G1 X92.113 Y115.217 E7.54548
G1 X91.894 Y114.466 E7.5728
G1 X91.791 Y113.958 E7.5909
G1 X91.491 Y112.158 E7.65463
G1 X91.402 Y111.381 E7.68194
G1 X91.393 Y110.599 E7.70925
G1 X91.447 Y110.004 E7.73012
G1 X91.392 Y109.381 E7.75196
G1 X91.403 Y108.599 E7.77927
G1 X91.491 Y107.842 E7.80589
G1 X91.791 Y106.042 E7.86962
G1 X91.959 Y105.279 E7.8969
G1 X92.113 Y104.783 E7.91504
G1 X92.744 Y102.972 E7.98201
G1 X93.039 Y102.248 E8.00932
G1 X93.298 Y101.743 E8.02914
G1 X94.264 Y100.023 E8.09803
G1 X94.681 Y99.362 E8.12532
G1 X95.055 Y98.875 E8.14677
G1 X96.342 Y97.329 E8.21702
G1 X96.872 Y96.754 E8.24433
G0 F6000 X97.093 Y96.958
G1 F1200 X97.518 Y96.574 E8.26433
G1 X99.065 Y95.286 E8.33463
G1 X99.679 Y94.827 E8.36141
G1 X100.168 Y94.527 E8.38144
G1 X101.889 Y93.56 E8.45038
G1 X102.576 Y93.22 E8.47715
G1 X103.072 Y93.027 E8.49574
G1 X104.881 Y92.397 E8.56263
G1 X105.617 Y92.183 E8.5894
G1 X106.087 Y92.088 E8.60615
G1 X107.889 Y91.787 E8.66995
G1 X108.651 Y91.701 E8.69673
G1 X109.417 Y91.694 E8.72348
G1 X109.986 Y91.748 E8.74345
G1 X110.093 Y91.731 E8.74723
G1 X110.858 Y91.687 E8.77399
G1 X111.624 Y91.723 E8.80077
G1 X112.111 Y91.787 E8.81792
G1 X113.913 Y92.088 E8.88173
G1 X114.661 Y92.254 E8.90849
G1 X115.119 Y92.397 E8.92524
G1 X116.928 Y93.027 E8.99214
G1 X117.638 Y93.316 E9.01891
G1 X118.111 Y93.56 E9.0375
G1 X119.832 Y94.527 E9.10644
G1 X120.48 Y94.937 E9.13322
G1 X120.934 Y95.286 E9.15322
G1 X122.479 Y96.572 E9.22342
G1 X123.042 Y97.092 E9.25018
G1 X123.424 Y97.517 E9.27014
G1 X124.711 Y99.062 E9.34036
G1 X125.171 Y99.675 E9.36713
G1 X125.472 Y100.166 E9.38724
G1 X126.44 Y101.889 E9.45626
G1 X126.78 Y102.576 E9.48303
G1 X126.972 Y103.069 E9.50151
G1 X127.602 Y104.876 E9.56834
G1 X127.817 Y105.612 E9.59511
G1 X127.912 Y106.086 E9.612
G1 X128.213 Y107.89 E9.67587
G1 X128.299 Y108.652 E9.70265
G1 X128.306 Y109.419 E9.72944
G1 X128.252 Y109.987 E9.74936
G1 X128.269 Y110.093 E9.75311
G1 X128.313 Y110.858 E9.77987
G1 X128.277 Y111.624 E9.80665
G1 X128.213 Y112.108 E9.8237
G1 X127.913 Y113.908 E9.88743
G1 X127.748 Y114.657 E9.91422
G1 X127.604 Y115.118 E9.93108
G1 X126.973 Y116.929 E9.99806
G1 X126.683 Y117.639 E10.02484
G1 X126.44 Y118.11 E10.04335
G1 X125.474 Y119.83 E10.11224
G1 X125.065 Y120.478 E10.13901
G1 X124.715 Y120.933 E10.15905
G1 X123.428 Y122.479 E10.2293
G1 X122.907 Y123.042 E10.25609
G1 X122.482 Y123.426 E10.2761
G1 X120.935 Y124.714 E10.3464
G1 X120.321 Y125.173 E10.37317
G1 X119.832 Y125.473 E10.3932
G1 X118.111 Y126.44 E10.46214
G1 X117.424 Y126.78 E10.48891
G1 X116.928 Y126.973 E10.5075
G1 X115.119 Y127.603 E10.5744
G1 X114.383 Y127.817 E10.60117
G1 X113.913 Y127.912 E10.61791
G1 X112.111 Y128.213 E10.68171
G1 X111.349 Y128.299 E10.7085
G1 X110.583 Y128.306 E10.73525
G1 X110.014 Y128.252 E10.75521
G1 X109.907 Y128.269 E10.75899
G1 X109.142 Y128.313 E10.78575
G1 X108.376 Y128.277 E10.81253
G1 X107.889 Y128.213 E10.82969
G1 X106.087 Y127.912 E10.89349
G1 X105.339 Y127.746 E10.92025
G1 X104.881 Y127.603 E10.937
G1 X103.072 Y126.973 E11.0039
G1 X102.362 Y126.684 E11.03067
G1 X101.889 Y126.44 E11.04926
G1 X100.168 Y125.473 E11.1182
G1 X99.52 Y125.063 E11.14498
G1 X99.065 Y124.714 E11.16501
G1 X97.518 Y123.426 E11.23531
G1 X96.955 Y122.905 E11.26209
G1 X96.572 Y122.479 E11.2821
G1 X95.285 Y120.933 E11.35235
G1 X94.826 Y120.32 E11.3791
G1 X94.526 Y119.83 E11.39916
G1 X93.56 Y118.11 E11.46805
G1 X93.22 Y117.423 E11.49482
G1 X93.027 Y116.929 E11.51335
G1 X92.396 Y115.118 E11.58032
G1 X92.182 Y114.382 E11.60709
G1 X92.087 Y113.908 E11.62397
G1 X91.787 Y112.108 E11.6877
G1 X91.701 Y111.347 E11.71445
G1 X91.694 Y110.58 E11.74123
G1 X91.748 Y110.013 E11.76112
G1 X91.731 Y109.907 E11.76487
G1 X91.687 Y109.142 E11.79163
G1 X91.723 Y108.376 E11.81841
G1 X91.787 Y107.892 E11.83546
G1 X92.087 Y106.092 E11.89919
G1 X92.252 Y105.343 E11.92598
G1 X92.396 Y104.882 E11.94284
G1 X93.027 Y103.071 E12.00982
G1 X93.317 Y102.361 E12.0366
G1 X93.56 Y101.89 E12.05511
G1 X94.526 Y100.17 E12.124
G1 X94.935 Y99.522 E12.15077
G1 X95.285 Y99.067 E12.17081
G1 X96.572 Y97.521 E12.24106
G1 X97.093 Y96.958 E12.26785
G0 F6000 X97.313 Y97.162
G1 F1200 X97.71 Y96.805 E12.2865
G1 X99.257 Y95.517 E12.3568
G1 X99.859 Y95.068 E12.38303
G1 X100.315 Y94.789 E12.4017
G1 X102.036 Y93.822 E12.47064
G1 X102.709 Y93.489 E12.49686
G1 X103.17 Y93.31 E12.51413
G1 X104.979 Y92.68 E12.58103
G1 X105.7 Y92.471 E12.60724
G1 X106.136 Y92.384 E12.62277
G1 X107.938 Y92.083 E12.68657
G1 X108.684 Y91.999 E12.71279
G1 X109.435 Y91.995 E12.73902
G1 X110.009 Y92.053 E12.75917
G1 X110.342 Y92.009 E12.7709
G1 X111.092 Y91.99 E12.7971
G1 X112.062 Y92.083 E12.83113
G1 X113.864 Y92.384 E12.89493
G1 X114.596 Y92.547 E12.92112
G1 X115.021 Y92.68 E12.93667
G1 X116.83 Y93.31 E13.00357
G1 X117.524 Y93.594 E13.02976
G1 X117.964 Y93.822 E13.04706
G1 X119.685 Y94.789 E13.11601
G1 X120.319 Y95.191 E13.14222
G1 X120.742 Y95.516 E13.16085
G1 X122.287 Y96.802 E13.23105
G1 X122.838 Y97.313 E13.2573
G1 X123.194 Y97.709 E13.27589
G1 X124.481 Y99.254 E13.34612
G1 X124.93 Y99.855 E13.37232
G1 X125.21 Y100.313 E13.39106
G1 X126.178 Y102.036 E13.46008
G1 X126.511 Y102.709 E13.48631
G1 X126.689 Y103.168 E13.5035
G1 X127.319 Y104.975 E13.57033
G1 X127.528 Y105.696 E13.59655
G1 X127.616 Y106.136 E13.61222
G1 X127.917 Y107.94 E13.67609
G1 X128.001 Y108.686 E13.70231
G1 X128.005 Y109.436 E13.7285
G1 X127.947 Y110.009 E13.74861
G1 X127.991 Y110.342 E13.76034
G1 X128.01 Y111.092 E13.78654
G1 X127.917 Y112.059 E13.82047
G1 X127.617 Y113.859 E13.8842
G1 X127.454 Y114.592 E13.91042
G1 X127.32 Y115.02 E13.92609
G1 X126.689 Y116.831 E13.99306
G1 X126.405 Y117.525 E14.01925
G1 X126.179 Y117.963 E14.03646
G1 X125.213 Y119.683 E14.10535
G1 X124.811 Y120.317 E14.13157
G1 X124.484 Y120.742 E14.1503
G1 X123.197 Y122.288 E14.22055
G1 X122.687 Y122.838 E14.24674
G1 X122.29 Y123.195 E14.26539
G1 X120.743 Y124.483 E14.33569
G1 X120.141 Y124.932 E14.36192
G1 X119.685 Y125.211 E14.38059
G1 X117.964 Y126.178 E14.44953
G1 X117.291 Y126.511 E14.47575
G1 X116.83 Y126.69 E14.49302
G1 X115.021 Y127.32 E14.55992
G1 X114.3 Y127.529 E14.58613
G1 X113.864 Y127.616 E14.60166
G1 X112.062 Y127.917 E14.66546
G1 X111.316 Y128.001 E14.69168
G1 X110.565 Y128.005 E14.71791
G1 X109.991 Y127.947 E14.73806
G1 X109.658 Y127.991 E14.74979
G1 X108.908 Y128.01 E14.77599
G1 X107.938 Y127.917 E14.81002
G1 X106.136 Y127.616 E14.87382
G1 X105.404 Y127.453 E14.90001
G1 X104.979 Y127.32 E14.91556
G1 X103.17 Y126.69 E14.98246
G1 X102.476 Y126.406 E15.00865
G1 X102.036 Y126.178 E15.02596
G1 X100.315 Y125.211 E15.0949
G1 X99.681 Y124.809 E15.12111
G1 X99.257 Y124.483 E15.13979
G1 X97.71 Y123.195 E15.21009
G1 X97.16 Y122.685 E15.23629
G1 X96.803 Y122.288 E15.25493
G1 X95.516 Y120.742 E15.32518
G1 X95.067 Y120.14 E15.35141
G1 X94.787 Y119.683 E15.37013
G1 X93.821 Y117.963 E15.43902
G1 X93.489 Y117.29 E15.46523
G1 X93.311 Y116.831 E15.48242
G1 X92.68 Y115.02 E15.5494
G1 X92.471 Y114.299 E15.57561
G1 X92.383 Y113.859 E15.59128
G1 X92.083 Y112.059 E15.65501
G1 X91.999 Y111.313 E15.68123
G1 X91.995 Y110.562 E15.70746
G1 X92.053 Y109.99 E15.72754
G1 X92.009 Y109.658 E15.73923
G1 X91.99 Y108.908 E15.76543
G1 X92.083 Y107.941 E15.79936
G1 X92.383 Y106.141 E15.86309
G1 X92.546 Y105.408 E15.88931
G1 X92.68 Y104.98 E15.90497
G1 X93.311 Y103.169 E15.97195
G1 X93.595 Y102.475 E15.99814
G1 X93.821 Y102.037 E16.01535
G1 X94.787 Y100.317 E16.08424
G1 X95.189 Y99.683 E16.11046
G1 X95.516 Y99.258 E16.12919
G1 X96.803 Y97.712 E16.19944
G1 X97.313 Y97.162 E16.22563
G0 F6000 X97.533 Y97.366
G1 F1200 X97.902 Y97.036 E16.24292
G1 X99.449 Y95.748 E16.31322
G1 X100.038 Y95.309 E16.33887
G1 X100.461 Y95.05 E16.3562
G1 X102.182 Y94.083 E16.42514
G1 X102.842 Y93.759 E16.45081
G1 X103.269 Y93.594 E16.4668
G1 X105.078 Y92.964 E16.5337
G1 X105.784 Y92.76 E16.55936
G1 X106.186 Y92.68 E16.57368
G1 X107.988 Y92.379 E16.63748
G1 X108.718 Y92.298 E16.66313
G1 X109.453 Y92.296 E16.6888
G1 X109.995 Y92.354 E16.70784
G1 X110.586 Y92.294 E16.72858
G1 X111.321 Y92.3 E16.75425
G1 X112.012 Y92.379 E16.77854
G1 X113.814 Y92.68 E16.84234
G1 X114.531 Y92.841 E16.86801
G1 X114.922 Y92.964 E16.88232
G1 X116.731 Y93.594 E16.94922
G1 X117.411 Y93.872 E16.97487
G1 X117.818 Y94.083 E16.99088
G1 X119.539 Y95.05 E17.05982
G1 X120.158 Y95.444 E17.08545
G1 X120.55 Y95.747 E17.10275
G1 X122.095 Y97.033 E17.17295
G1 X122.633 Y97.533 E17.1986
G1 X122.963 Y97.901 E17.21587
G1 X124.25 Y99.446 E17.28609
G1 X124.689 Y100.035 E17.31175
G1 X124.949 Y100.46 E17.32914
G1 X125.917 Y102.183 E17.39816
G1 X126.241 Y102.842 E17.42381
G1 X126.406 Y103.267 E17.43973
G1 X127.036 Y105.074 E17.50656
G1 X127.239 Y105.78 E17.53222
G1 X127.32 Y106.185 E17.54664
